X: 34031
T: Reel De Bergerville
R: reel
M: 4/4
K: Bminor
|:"Bm"B3B BFBc|dB/c/de f2d2|B3B BFBc|"F#m"dedc "Bm"B2F2|
"Bm"B3B BFBc|dB/c/de f2d2|B3B BFBc|1 "F#m"dedc "Bm"B2F2:|2 "F#m"dedc "Bm"B4||
K: Dmaj
|:"D"A2BA F2AB/c/|dB/c/de f2d2|A2BA FAdf|dAFD "A"E3B|
"D"A2BA F2AB/c/|dB/c/de f2d2|A2BA FAdf|1 "A"eABc "D"d4:|2 "A"eABc "D"d2c2||

